!!!!SEGMENT: pl-wn--sd-xvi-qu-273--101_gomolka-mikolaj--ciebie-o-boze-niezmierzony.krn
!!!cenid: 15xx:306
!!!COM: Gomółka, Mikołaj
!!!COM-rismid: pe30013343
!!!CDT: ~1535->1591/04/30
!!!CNT: Polish
!!!GTL: Melodiae na psalterz polski
!!!OTL: CI. Ciebie, o Boże niezmierzony,
!!!ONB: PSALM CI. Miſericordiam et iudicium, cantabo tibi DOmine.
!!!PDT: 1580
!!!AGN: Sacred
!!!SMS-siglum: PL-Wn
!!!SMS-shelfmark: SD XVI.Qu.273
!!!SMS-shelfwork: 101 G
!!!NIFC-rismid:
!!!ONB-nifc: Melodiae na psalterz polski
**kern	**text	**kern	**text	**kern	**text	**kern	**text
*part4	*part4	*part3	*part3	*part2	*part2	*part1	*part1
*staff4	*staff4	*staff3	*staff3	*staff2	*staff2	*staff1	*staff1
*clefF4	*	*clefC3	*	*clefC3	*	*clefC1	*
*k[b-]	*	*k[b-]	*	*k[b-]	*	*k[b-]	*
*B-:	*	*B-:	*	*B-:	*	*B-:	*
*M2/1	*	*M2/1	*	*M2/1	*	*M2/1	*
*met(C|)	*	*met(C|)	*	*met(C|)	*	*met(C|)	*
*I"BASSUS.	*	*I"TENOR.	*	*I"ALTUS.	*	*I"CANTUS.	*
=1-	=1	=1-	=1	=1-	=1	=1-	=1
1BB-/	ĆJe-	1B-/	ĆJe-	2.d\	ĆJe-	2.f/	ĆJe-
.	.	.	.	4e\	-bie	4f/	-bie
2FF/	-bie	2A/	-bie	2f\	o	2a\	o
1F\	o	2c/	o	1f\	bo-	1a\	bo-
=2-	=2	=2-	=2	=2-	=2	=2-	=2
.	.	1d\	bo-	.	.	.	.
2G\	bo-	.	.	4d\	-ʒe	2b-\	-ʒe
.	.	.	.	4e\	nie-	.	.
2A\	-ʒe	2c/	-ʒe	2f\	-ʒmie-	2a\	nie-
2F\	nie-	4f\	nie-	2c\	-rʒo-	2cc\	-ʒmie-
.	.	4e\	-ʒmie-	.	.	.	.
=3-	=3	=3-	=3	=3-	=3	=3-	=3
2BB-/	.	2d\	-rʒo-	2d\	-ny,	2b-\	-rʒo-
2C/	-ʒmie-	2c/	-ny,	2e\	Brʒmiéć	1a\	-ny,
2D/	-rʒo-	1B-/	Brʒmiéć	2f\	.	.	.
2E\	.	.	.	4e\	.	2g/	Brʒmiéć
.	.	.	.	4d\	bę-	.	.
=4-	=4	=4-	=4	=4-	=4	=4-	=4
2F\	-ny,	2A/	.	2c/	-dą	2a\	.
2D/	Brʒmiéć	1d\	.	2f\	mo-	2a\	bę-
2A\	bę-	.	.	1e\	-ie	2.a\	-dą
2A\	-dą	2c#X/	bę-	.	.	.	.
.	.	.	.	.	.	4g/	.
=5-	=5	=5-	=5	=5-	=5	=5-	=5
2.B-\	mo-	2.d\	-dą	1d\	.	2f/	mo-
.	.	.	.	.	.	4g\	-ie
4A\	.	4cny/	mo-	.	.	4a\	.
4G\	-ie	2B-/	-ie	2d\	wdʒię-	4b-\	wdʒię-
4F\	.	.	.	.	.	4a\	.
2G\	wdʒię-	2B-/	wdʒię-	2d\	-ne	4g/	-czné
.	.	.	.	.	.	4f/	.
=6-	=6	=6-	=6	=6-	=6	=6-	=6
2G\	-czné	2B-/	-czné	2d\	ſtro-	2g/	.
2C/	ſtro-	4c/	ſtro-	2e\	.	2g/	ſtro-
.	.	4B-/	.	.	.	.	.
!!LO:PB:g=original
2D/	-ny.	2A/	-ny.	2d\	-ny.	2f#X/	-ny.
2D/	Ćie-	2d\	Ćie-	2f\	Ćie-	2a\	Ćie-
=7-	=7	=7-	=7	=7-	=7	=7-	=7
2AA/	-bie	2c#X\	-bie	2e\	-bie	2a\	-bie
2D\	do-	2d\	do-	2f#X\	do-	2a\	do-
1GG/	-bré-	2.B-/	-bré-	2g\	-bré-	2.g/	-bré-
.	.	.	.	2g\	-go	.	.
.	.	4cny/	-go	.	.	4a\	-go
=8-	=8	=8-	=8	=8-	=8	=8-	=8
1.G\	-go	1d\	nàd	1.G/	nàd	1b-\	.
.	.	2.d\	do-	.	.	2b-\	nàd
2F#X\	nàd	.	.	2A/	do-	1a\	do-
.	.	4c/	-bré-	.	.	.	.
=9-	=9	=9-	=9	=9-	=9	=9-	=9
1G\	do-	1B-/	-mi,	2B-/	.	.	.
.	.	.	.	2G/	-bré-	2g/	-bré-
2D/	-bré-	2A/	A	2d\	-mi,	2a\	-mi,
2Fny\	-mi,	2A/	ſu-	2c/	A	2a\	.
=10-	=10	=10-	=10	=10-	=10	=10-	=10
2F\	A	2c/	-ro-	2fny\	ſu-	2a\	A
2D/	ſu-	2d\	-we-	2f\	-ro-	2fny/	ſu-
2E\	-ro-	2c/	-go	4e\	-we-	2g/	-ro-
.	.	.	.	4d\	-go	.	.
2F\	-we-	2A/	nad	2c/	nad	2a\	-we-
=11-	=11	=11-	=11	=11-	=11	=11-	=11
2BB-/	-go	2.B-/	grʒé-	2d\	.	4g/	-go
.	.	.	.	.	.	4f/	nad
2BB-/	nad	.	.	2d\	grʒé-	1f/	grʒé-
.	.	4A/	.	.	.	.	.
1C/	grʒé_ſʒné-	4G/	.	2.c/	-ſʒné-	.	.
.	.	4F/	-ſʒné-	.	.	.	.
.	.	2G/	.	.	.	2e/	-ſʒné-
.	.	.	.	4B-/	-mi.	.	.
=12-	=12	=12-	=12	=12-	=12	=12-	=12
*	*	*000/left	*	*000/left	*	*	*
000FF/	-mi.	000F/	-mi.	000A/	.	000f/	-mi.
==	==	==	==	==	==	==	==
*-	*-	*-	*-	*-	*-	*-	*-
!!!RDF**kern: l = terminal long
!!!system-decoration: s1,s2,s3,s4
!!!ENC: Marta Lawrence
!!!END: 2020-02-17
!!!URL-scan: https://polona.pl/item/melodiae-na-psalterz-polski,Nzk3MTM4ODQ/236 Scan on Polona
!!!IIIF: https://polona.pl/iiif/item/Nzk3MTM4ODQ/manifest.json
